X:1
T:Title
%%score ( 1 2 ) { 3 | 4 }
L:1/8
Q:1/4=100
M:6/8
K:F
V:1 treble nm="Grand Piano, Soprano"
V:2 treble 
V:3 treble nm="Choir Pad, Pune, Hubert Platt Main"
V:4 bass 
V:1
 [CF] [CF]2 [FA] [FA]2 | [Ac][Ac][GB] [FA] [GB]2 | [EG] [FA]2 [Ac]cB | %3
w: By~Hubert~Platt~Main,~1884 * * *|||
 [FA] [EG]2- [EG]2- [EG]/ z/ | F [CF]2 [FA] [FA]2 | [Fc][Fc][EB] [FA] [EB]2 | %6
w: |||
 [Gc] [FA]2 [FB]C-[CF] | [CE] [CF]2- [CF]2- [CF]/ z/ | z c2- c2- c/ z/ | [Ec] [Fc]2 [_Ad] [=Ac]2 | %10
w: ||||
 [FA]E-[Ec] [Ee] [Fd]2 | [F=B]c-[Gc-] [Fc-][E-c]>E | [GB] [FA]2 [FA][FA][GB] | %13
w: |||
 [Ac][Ac][GB] [FA] [GB]2 | [Gc] [FA]2 [FB]GF | [CE] [CF]2- [CF]3- | [CF]3 z3 |] %17
w: ||||
V:2
 x6 | x6 | z3 z G2 | x6 | x6 | x6 | z3 z .G2 | x6 | [Fc] E2 EGF | x6 | z .G2 z3 | z .E2 z3 | x6 | %13
 x6 | z3 z C2 | x6 | x6 |] %17
V:3
 A, A,2 C C2 | C C2 C C2 | C C2 C C2 | C C2- C2- C/ z/ | A, A,2 C C2 | C C2 C C2 | %6
 C C2 D[K:bass]B,A, | G, A,2- A,2- A,/ z/ | A, G,2 A,B,A, | G, A,2 =B,[K:treble] C2 | C C2 C =B,2 | %11
 DC[K:bass]B, A, G,2 | C C2[K:treble] C C2 | C C2 C C2 | C C2 D[K:bass]B,A, | G, A,2- A,3- | %16
 A,3 z3 |] %17
V:4
 F, F,2 F, F,2 | F, C,2 C, C,2 | C, F,2 F, E,2 | F, C,2- C,2- C,/ z/ | F, F,2 F, F,2 | %5
 A,A,G, F, G,2 | E, F,2 B,, C,2 | C, F,2- F,2- F,/ z/ | F, C,2- C,2- C,/ z/ | C, F,2 F, F,2 | %10
 F, G,2 G, G,2 | G,, C,2- C,2- C,/ z/ | E, F,2 F, F,2 | F, C,2 C, C,2 | E, F,2 B,, C,2 | %15
 C, F,2- F,3- | F,3 z3 |] %17

